!!!!SEGMENT:16Seigaiha_c.krn
!!!OTL: 青海波（清元）
!!!OPR:Eiga Banso Kyokusyu,jidai-geki,kouhen
!!!YOY:1928
!!!ONB:Fune
**kern
*clefG2
*C:
*M2/4
8bb
=1
4.ccc#X
(8bb
=2
4.gg#X)
8ff#
=3
(4gg#X
4bb
=4
8.ccc#XL
16bbJk)
(4gg#X
=5
8ff#
4bb
8gg#X)
=6
[4ff#
8ff#]
8ee
=7
4cc#X
4g#X
=8
8.bL
16g#XJk
4f#
=9
4e
4f#
=10
2gn
=11
4.g
(8b
=12
8.cc#XL
16bJk
4g
=13
4f#)
4e
=14
2f#
=15
4c#X
4r
=16
4r
8eeL
8cc#XJ
=17
4ee
4ff#
=18
4f#
8ff#L
8ff#J
=19
4f#
4r
=20
4.ff#
8bb
=21
(4gg#X
8.ff#L
16eeJk)
=22
8.cc#XL
16bJk
8.g#XL
16bJk
=23
4cc#X
4r
=24
8ff#
8bb
4ccc#X
=25
4bb
4gg#X
=26
8.ff#L
16eeJk
8.cc#XL
16bJk
=27
4cc#X
4r
=28
8f#L
8ee
8f#
8eeJ
=29
8f#L
8ee
8f#
8eeJ
=30
4f#
8ff#L
8ff#J
=31
4f#
8ff#L
8ggJ
=32
4bb
4gg
=33
4ff#
4ee
=34
4cc
4b
=35
4cc#X
4b
=36
4cc#X
4b
=37
4cc#X
4dd
=38
4ff#
4dd
=39
2cc#X
=40
2b
=41
2g#X
=42
4cc#X
4cc#
=43
2cc#X
=44
2cc#X
=45
4cc#X
4r
==
*-
!!!ENC: Yukiko Yoden
!!!END: 2023/06/11
